X:200
T: KAMERAD ICH BIN GESCHOSSEN
N: E1341
O: Europa, Mitteleuropa, Deutschland, Schlesien
R: Staende -, Soldaten -, Kriegs - Lied
M: 4/4
L: 1/8
K: F
CC | F2F2A2A2 | G4F2
FF | A2A2c2c2 | B4A2z2 |
c3BA2F2 | B2d2c4 |
B3cA2F2 | G2G2F2

@@@ Tune index: 4884
